X:1323
L:1/8
Q:1/8=150
M:4/4
K:Gmin
"^spirited" G/A/ | B>cdg cedc/A/ | G>BAG F3 G/A/ | B>cd=e fdc_e | dgg^f g3 G/A/ | B>cdg cedc/A/ | 
 G>BAG F3 G/A/ | B>cdg gddB | c>BGG G2 z || G/A/ | B>ABc d>edc | db a/g/f/a/ g3 G/A/ | 
 B>ABc d2 g>f | d>edc B2 cd | dggf dBcA | G>BAG F3 G/A/ | B>cdg gddB | c>BGG G3 |] 
[K:Emin]"^version in Em" E/F/ | GABe AcBF | EGFE D3 F | GAB^c dBA=c | Bee^d e3 E/F/ | 
 G>ABe AcBA/F/ | E>GFE D3 F | G>ABe eBBG | A>GEE E2 z || E/F/ | G>FGA B>cBA | Bg f/e/d/f/ e3 E/F/ | 
 G>FGA B2 e>d | B>cBA G2 AB | Beed BGAF | E>GFE D3 E/F/ | G>ABe eBBG | A>GEE E4 |]

